svgs/sharp-regular/curling-stone.svg

<svg xmlns="http://www.w3.org/2000/svg" viewBox="0 0 576 512"><!--! Font Awesome Pro 6.4.2 by @fontawesome - https://fontawesome.com License - https://fontawesome.com/license (Commercial License) Copyright 2023 Fonticons, Inc. --><path d="M176 32h24H392h24V80H392 224v64H480v64h32l64 64v40 8 96l-64 64H64L0 416V320v-8V272l64-64H96V144h80V56 32zM48 312v8H528v-8V291.9L492.1 256H83.9L48 291.9V312zm0 56v28.1L83.9 432H492.1L528 396.1V368H48z"/></svg>

<svg xmlns="http://www.w3.org/2000/svg" viewBox="0 0 576 512"><!--! Font Awesome Pro 6.6.0 by @fontawesome - https://fontawesome.com License - https://fontawesome.com/license (Commercial License) Copyright 2024 Fonticons, Inc. --><path d="M176 32l24 0 192 0 24 0 0 48-24 0L224 80l0 64 256 0 0 64 32 0 64 64 0 40 0 8 0 96-64 64L64 480 0 416l0-96 0-8 0-40 64-64 32 0 0-64 80 0 0-88 0-24zM48 312l0 8 480 0 0-8 0-20.1L492.1 256 83.9 256 48 291.9 48 312zm0 56l0 28.1L83.9 432l408.2 0L528 396.1l0-28.1L48 368z"/></svg>
